svg/color/grnc.svg

<?xml version="1.0" encoding="UTF-8" ?>
<!DOCTYPE svg PUBLIC "-//W3C//DTD SVG 1.1//EN" "http://www.w3.org/Graphics/SVG/1.1/DTD/svg11.dtd">
<svg width="250pt" height="250pt" viewBox="0 0 250 250" version="1.1" xmlns="http://www.w3.org/2000/svg">
<g id="#ffffffff">
<path fill="#ffffff" opacity="1.00" d=" M 0.00 0.00 L 128.25 0.00 C 128.39 9.35 127.96 18.98 131.01 27.96 C 135.60 41.48 143.76 53.36 149.29 66.46 C 151.02 70.48 151.84 74.80 152.70 79.07 C 155.02 76.74 156.00 73.47 157.65 70.68 C 166.36 53.33 174.66 35.37 177.94 16.09 C 177.85 14.71 179.26 12.33 177.51 11.59 C 163.51 4.86 148.13 1.34 132.70 0.00 L 250.00 0.00 L 250.00 250.00 L 0.00 250.00 L 0.00 129.64 C 0.39 132.78 -0.44 136.51 1.99 138.98 C 12.30 151.65 26.36 160.59 40.45 168.52 C 59.40 177.96 77.03 190.98 89.38 208.38 C 88.97 189.99 86.21 171.47 79.93 154.12 C 75.18 141.33 68.07 129.34 58.68 119.39 C 46.46 106.16 31.30 96.07 15.70 87.26 C 12.88 85.76 10.22 83.88 7.11 83.03 C 3.14 95.07 0.46 107.60 0.00 120.30 L 0.00 0.00 M 73.17 11.21 C 73.40 16.43 74.98 21.45 76.34 26.45 C 77.88 31.74 79.15 37.22 82.08 41.96 C 84.95 46.80 87.19 52.00 90.52 56.55 C 101.39 72.02 113.96 86.44 122.60 103.37 C 126.45 110.74 128.37 118.90 129.87 127.02 C 130.08 127.32 130.50 127.92 130.70 128.22 C 133.59 120.12 136.87 112.17 140.34 104.30 C 141.61 95.94 141.40 87.37 140.29 78.99 C 139.57 73.73 137.08 68.98 134.81 64.26 C 128.65 52.15 121.44 40.34 118.03 27.07 C 115.82 18.54 116.53 9.69 115.82 1.00 C 101.01 0.66 86.63 5.45 73.17 11.21 M 12.16 71.58 C 37.06 84.65 61.65 100.59 77.96 124.04 C 94.12 147.05 99.86 175.51 101.58 203.11 C 102.02 215.08 102.46 227.32 99.22 238.97 C 98.56 241.64 97.30 244.15 97.05 246.91 C 103.48 248.38 110.04 249.21 116.65 249.00 C 115.65 234.70 114.86 220.33 116.14 206.02 C 116.78 190.36 118.17 174.75 118.91 159.10 C 120.23 146.02 119.21 132.71 115.87 119.99 C 114.14 112.89 110.62 106.39 106.79 100.22 C 99.32 88.26 90.40 77.29 82.13 65.89 C 77.08 58.96 73.39 51.19 69.28 43.71 C 65.70 35.17 63.78 26.05 61.45 17.12 C 40.30 30.06 22.33 48.85 12.16 71.58 M 189.87 18.30 C 188.91 26.35 186.48 34.13 183.84 41.77 C 178.47 56.70 171.69 71.09 164.01 84.97 C 157.05 96.86 151.25 109.40 146.08 122.16 C 139.26 139.41 133.65 157.33 131.93 175.88 C 129.64 200.17 129.83 224.64 130.74 249.00 C 136.16 248.99 141.62 249.17 146.97 248.10 C 146.46 242.32 144.77 236.72 144.09 230.95 C 140.21 206.62 141.81 181.25 150.06 157.95 C 156.72 139.00 167.68 121.86 180.26 106.32 C 187.51 97.49 194.61 88.52 201.09 79.10 C 208.12 68.88 214.63 58.05 218.12 46.06 C 218.48 44.50 219.43 42.46 217.78 41.30 C 209.64 32.38 200.33 24.37 189.87 18.30 M 227.77 55.59 C 222.00 71.00 212.53 84.65 202.70 97.72 C 195.60 107.25 187.62 116.10 180.82 125.86 C 171.33 139.29 163.55 154.07 159.15 169.96 C 158.27 173.26 157.18 176.55 157.18 180.01 C 166.02 168.18 179.23 160.77 192.04 153.99 C 210.00 145.15 228.49 136.18 242.77 121.81 C 245.57 118.40 250.11 115.14 248.94 110.12 C 247.07 90.46 239.60 71.51 228.70 55.11 C 228.47 55.23 228.00 55.47 227.77 55.59 M 199.21 164.17 C 186.96 170.58 174.19 177.42 165.80 188.78 C 159.79 197.22 157.72 207.87 157.63 218.05 C 158.23 226.93 159.92 235.81 162.79 244.23 C 175.50 240.20 187.56 234.12 198.36 226.29 C 220.72 210.22 237.40 186.47 245.05 160.02 C 247.52 151.29 249.61 142.26 248.90 133.11 C 234.42 146.46 216.87 155.78 199.21 164.17 M 5.07 159.16 C 7.08 168.90 11.56 178.00 16.29 186.70 C 31.08 212.92 55.68 233.45 84.19 243.13 C 86.59 237.99 87.00 231.91 85.10 226.53 C 82.39 218.78 77.32 212.12 71.88 206.07 C 61.48 195.07 48.85 186.35 35.36 179.60 C 24.70 173.70 14.29 167.16 5.07 159.16 Z" />
</g>
<g id="#b4d56aff">
<path fill="#b4d56a" opacity="1.00" d=" M 128.25 0.00 L 132.70 0.00 C 148.13 1.34 163.51 4.86 177.51 11.59 C 179.26 12.33 177.85 14.71 177.94 16.09 C 174.66 35.37 166.36 53.33 157.65 70.68 C 156.00 73.47 155.02 76.74 152.70 79.07 C 151.84 74.80 151.02 70.48 149.29 66.46 C 143.76 53.36 135.60 41.48 131.01 27.96 C 127.96 18.98 128.39 9.35 128.25 0.00 Z" />
<path fill="#b4d56a" opacity="1.00" d=" M 73.17 11.21 C 86.63 5.45 101.01 0.66 115.82 1.00 C 116.53 9.69 115.82 18.54 118.03 27.07 C 121.44 40.34 128.65 52.15 134.81 64.26 C 137.08 68.98 139.57 73.73 140.29 78.99 C 141.40 87.37 141.61 95.94 140.34 104.30 C 136.87 112.17 133.59 120.12 130.70 128.22 C 130.50 127.92 130.08 127.32 129.87 127.02 C 128.37 118.90 126.45 110.74 122.60 103.37 C 113.96 86.44 101.39 72.02 90.52 56.55 C 87.19 52.00 84.95 46.80 82.08 41.96 C 79.15 37.22 77.88 31.74 76.34 26.45 C 74.98 21.45 73.40 16.43 73.17 11.21 Z" />
</g>
<g id="#83c541ff">
<path fill="#83c541" opacity="1.00" d=" M 12.16 71.58 C 22.33 48.85 40.30 30.06 61.45 17.12 C 63.78 26.05 65.70 35.17 69.28 43.71 C 73.39 51.19 77.08 58.96 82.13 65.89 C 90.40 77.29 99.32 88.26 106.79 100.22 C 110.62 106.39 114.14 112.89 115.87 119.99 C 119.21 132.71 120.23 146.02 118.91 159.10 C 118.17 174.75 116.78 190.36 116.14 206.02 C 114.86 220.33 115.65 234.70 116.65 249.00 C 110.04 249.21 103.48 248.38 97.05 246.91 C 97.30 244.15 98.56 241.64 99.22 238.97 C 102.46 227.32 102.02 215.08 101.58 203.11 C 99.86 175.51 94.12 147.05 77.96 124.04 C 61.65 100.59 37.06 84.65 12.16 71.58 Z" />
<path fill="#83c541" opacity="1.00" d=" M 189.87 18.30 C 200.33 24.37 209.64 32.38 217.78 41.30 C 219.43 42.46 218.48 44.50 218.12 46.06 C 214.63 58.05 208.12 68.88 201.09 79.10 C 194.61 88.52 187.51 97.49 180.26 106.32 C 167.68 121.86 156.72 139.00 150.06 157.95 C 141.81 181.25 140.21 206.62 144.09 230.95 C 144.77 236.72 146.46 242.32 146.97 248.10 C 141.62 249.17 136.16 248.99 130.74 249.00 C 129.83 224.64 129.64 200.17 131.93 175.88 C 133.65 157.33 139.26 139.41 146.08 122.16 C 151.25 109.40 157.05 96.86 164.01 84.97 C 171.69 71.09 178.47 56.70 183.84 41.77 C 186.48 34.13 188.91 26.35 189.87 18.30 Z" />
</g>
<g id="#299f47ff">
<path fill="#299f47" opacity="1.00" d=" M 227.77 55.59 C 228.00 55.47 228.47 55.23 228.70 55.11 C 239.60 71.51 247.07 90.46 248.94 110.12 C 250.11 115.14 245.57 118.40 242.77 121.81 C 228.49 136.18 210.00 145.15 192.04 153.99 C 179.23 160.77 166.02 168.18 157.18 180.01 C 157.18 176.55 158.27 173.26 159.15 169.96 C 163.55 154.07 171.33 139.29 180.82 125.86 C 187.62 116.10 195.60 107.25 202.70 97.72 C 212.53 84.65 222.00 71.00 227.77 55.59 Z" />
<path fill="#299f47" opacity="1.00" d=" M 7.11 83.03 C 10.22 83.88 12.88 85.76 15.70 87.26 C 31.30 96.07 46.46 106.16 58.68 119.39 C 68.07 129.34 75.18 141.33 79.93 154.12 C 86.21 171.47 88.97 189.99 89.38 208.38 C 77.03 190.98 59.40 177.96 40.45 168.52 C 26.36 160.59 12.30 151.65 1.99 138.98 C -0.44 136.51 0.39 132.78 0.00 129.64 L 0.00 120.30 C 0.46 107.60 3.14 95.07 7.11 83.03 Z" />
</g>
<g id="#4b843dff">
<path fill="#4b843d" opacity="1.00" d=" M 199.21 164.17 C 216.87 155.78 234.42 146.46 248.90 133.11 C 249.61 142.26 247.52 151.29 245.05 160.02 C 237.40 186.47 220.72 210.22 198.36 226.29 C 187.56 234.12 175.50 240.20 162.79 244.23 C 159.92 235.81 158.23 226.93 157.63 218.05 C 157.72 207.87 159.79 197.22 165.80 188.78 C 174.19 177.42 186.96 170.58 199.21 164.17 Z" />
<path fill="#4b843d" opacity="1.00" d=" M 5.07 159.16 C 14.29 167.16 24.70 173.70 35.36 179.60 C 48.85 186.35 61.48 195.07 71.88 206.07 C 77.32 212.12 82.39 218.78 85.10 226.53 C 87.00 231.91 86.59 237.99 84.19 243.13 C 55.68 233.45 31.08 212.92 16.29 186.70 C 11.56 178.00 7.08 168.90 5.07 159.16 Z" />
</g>
</svg>

<?xml version="1.0" encoding="utf-8"?>
<!-- Generator: Adobe Illustrator 26.0.3, SVG Export Plug-In . SVG Version: 6.00 Build 0)  -->
<svg version="1.1" id="Layer_1" xmlns="http://www.w3.org/2000/svg" xmlns:xlink="http://www.w3.org/1999/xlink" x="0px" y="0px"
	 viewBox="0 0 250 250" style="enable-background:new 0 0 250 250;" xml:space="preserve">
<style type="text/css">
	.st0{fill:#B4D56A;}
	.st1{fill:#83C541;}
	.st2{fill:#299F47;}
	.st3{fill:#4B843D;}
</style>
<g id="_x23_b4d56aff">
	<path class="st0" d="M128.2,0h4.4c15.4,1.3,30.8,4.9,44.8,11.6c1.8,0.7,0.3,3.1,0.4,4.5c-3.3,19.3-11.6,37.2-20.3,54.6
		c-1.6,2.8-2.6,6.1-4.9,8.4c-0.9-4.3-1.7-8.6-3.4-12.6c-5.5-13.1-13.7-25-18.3-38.5C128,19,128.4,9.4,128.2,0z"/>
	<path class="st0" d="M73.2,11.2C86.6,5.4,101,0.7,115.8,1c0.7,8.7,0,17.5,2.2,26.1c3.4,13.3,10.6,25.1,16.8,37.2
		c2.3,4.7,4.8,9.5,5.5,14.7c1.1,8.4,1.3,17,0.1,25.3c-3.5,7.9-6.8,15.8-9.6,23.9c-0.2-0.3-0.6-0.9-0.8-1.2
		c-1.5-8.1-3.4-16.3-7.3-23.6C114,86.4,101.4,72,90.5,56.5c-3.3-4.5-5.6-9.8-8.4-14.6c-2.9-4.7-4.2-10.2-5.7-15.5
		C75,21.5,73.4,16.4,73.2,11.2z"/>
</g>
<g id="_x23_83c541ff">
	<path class="st1" d="M12.2,71.6c10.2-22.7,28.1-41.5,49.3-54.5c2.3,8.9,4.2,18,7.8,26.6c4.1,7.5,7.8,15.2,12.8,22.2
		c8.3,11.4,17.2,22.4,24.7,34.3c3.8,6.2,7.3,12.7,9.1,19.8c3.3,12.7,4.4,26,3,39.1c-0.7,15.6-2.1,31.3-2.8,46.9
		c-1.3,14.3-0.5,28.7,0.5,43c-6.6,0.2-13.2-0.6-19.6-2.1c0.2-2.8,1.5-5.3,2.2-7.9c3.2-11.6,2.8-23.9,2.4-35.9
		c-1.7-27.6-7.5-56.1-23.6-79.1C61.7,100.6,37.1,84.7,12.2,71.6z"/>
	<path class="st1" d="M189.9,18.3c10.5,6.1,19.8,14.1,27.9,23c1.6,1.2,0.7,3.2,0.3,4.8c-3.5,12-10,22.8-17,33
		c-6.5,9.4-13.6,18.4-20.8,27.2c-12.6,15.5-23.5,32.7-30.2,51.6c-8.2,23.3-9.8,48.7-6,73c0.7,5.8,2.4,11.4,2.9,17.2
		c-5.4,1.1-10.8,0.9-16.2,0.9c-0.9-24.4-1.1-48.8,1.2-73.1c1.7-18.6,7.3-36.5,14.2-53.7c5.2-12.8,11-25.3,17.9-37.2
		c7.7-13.9,14.5-28.3,19.8-43.2C186.5,34.1,188.9,26.4,189.9,18.3z"/>
</g>
<g id="_x23_299f47ff">
	<path class="st2" d="M227.8,55.6c0.2-0.1,0.7-0.4,0.9-0.5c10.9,16.4,18.4,35.3,20.2,55c1.2,5-3.4,8.3-6.2,11.7
		C228.5,136.2,210,145.1,192,154c-12.8,6.8-26,14.2-34.9,26c0-3.5,1.1-6.8,2-10c4.4-15.9,12.2-30.7,21.7-44.1
		c6.8-9.8,14.8-18.6,21.9-28.1C212.5,84.7,222,71,227.8,55.6z"/>
	<path class="st2" d="M7.1,83c3.1,0.8,5.8,2.7,8.6,4.2c15.6,8.8,30.8,18.9,43,32.1c9.4,9.9,16.5,21.9,21.2,34.7
		c6.3,17.4,9,35.9,9.4,54.3C77,191,59.4,178,40.5,168.5C26.4,160.6,12.3,151.6,2,139c-2.4-2.5-1.6-6.2-2-9.3v-9.3
		C0.5,107.6,3.1,95.1,7.1,83z"/>
</g>
<g id="_x23_4b843dff">
	<path class="st3" d="M199.2,164.2c17.7-8.4,35.2-17.7,49.7-31.1c0.7,9.1-1.4,18.2-3.8,26.9c-7.7,26.4-24.3,50.2-46.7,66.3
		c-10.8,7.8-22.9,13.9-35.6,17.9c-2.9-8.4-4.6-17.3-5.2-26.2c0.1-10.2,2.2-20.8,8.2-29.3C174.2,177.4,187,170.6,199.2,164.2z"/>
	<path class="st3" d="M5.1,159.2c9.2,8,19.6,14.5,30.3,20.4c13.5,6.8,26.1,15.5,36.5,26.5c5.4,6,10.5,12.7,13.2,20.5
		c1.9,5.4,1.5,11.5-0.9,16.6c-28.5-9.7-53.1-30.2-67.9-56.4C11.6,178,7.1,168.9,5.1,159.2z"/>
</g>
</svg>
